X: 1
T: Born At Midnight
M: 6/8
L: 1/8
R: jig
K: Emin
|: E3 EGA | B3 BcB | BAA ABd | edB ABd |
E3 EGA | BcB BcB | ABd edc |1 B3 BGF :|2 B3 BcB ||
|: B2 A AGA | B2 A AGA | Bcd edc | Bcd  edc |
B2 A AGA | B2A AGA | Bcd edc |1 B3 BcB :|2 B3 BAG ||
|: A3 e^cA | efg fed | def dfa | g3 fed |
A3 e^cA | efg fed | fdd edc |1 B3 BAG :|2 B3 BGF||
|: E3 Ezg | fed edB | E3 efg |b3 gfe |
E3 Ezg | fed edB| edB dBA |1 Bee dBA :|2 BAG AFD||
